{
 "backgroundcolor": "#2e3a24",
 "compressionlevel": -1,
 "height": 20,
 "infinite": false,
 "layers": [
  {
   "data": [
    1,
    1,
    1,
    1,
    1,
    1,
    3,
    3,
    1,
    1,
    1,
    1,
    1,
    1,
    1,
    1,
    1,
    1,
    1,
    1,
    1,
    1,
    1,
    1,
    1,
    1,
    1,
    1,
    1,
    1,
    1,
    1,
    1,
    1,
    1,
    1,
    3,
    3,
    1,
    1,
    1,
    1,
    1,
    1,
    1,
    1,
    1,
    1,
    1,
    1,
    1,
    1,
    1,
    1,
    1,
    1,
    1,
    1,
    1,
    1,
    1,
    1,
    1,
    1,
    1,
    1,
    3,
    3,
    1,
    1,
    1,
    1,
    1,
    1,
    1,
    1,
    1,
    1,
    1,
    1,
    1,
    1,
    1,
    1,
    1,
    1,
    1,
    1,
    1,
    1,
    1,
    1,
    1,
    1,
    1,
    1,
    3,
    3,
    1,
    1,
    1,
    1,
    1,
    1,
    1,
    1,
    1,
    1,
    5,
    5,
    5,
    5,
    5,
    5,
    5,
    5,
    1,
    1,
    1,
    1,
    1,
    1,
    1,
    1,
    1,
    1,
    3,
    3,
    1,
    1,
    1,
    1,
    1,
    1,
    1,
    1,
    1,
    1,
    5,
    5,
    5,
    5,
    5,
    5,
    5,
    5,
    1,
    1,
    1,
    1,
    1,
    1,
    1,
    1,
    1,
    1,
    3,
    3,
    1,
    1,
    1,
    1,
    1,
    1,
    1,
    1,
    1,
    1,
    5,
    5,
    6,
    9,
    6,
    6,
    5,
    5,
    1,
    1,
    1,
    1,
    1,
    1,
    1,
    1,
    1,
    1,
    3,
    3,
    1,
    1,
    1,
    1,
    1,
    1,
    1,
    1,
    1,
    1,
    5,
    5,
    6,
    6,
    6,
    6,
    5,
    5,
    1,
    1,
    1,
    1,
    1,
    1,
    1,
    1,
    1,
    1,
    3,
    3,
    1,
    1,
    1,
    1,
    1,
    1,
    1,
    1,
    1,
    1,
    5,
    5,
    6,
    6,
    6,
    6,
    5,
    5,
    1,
    1,
    1,
    1,
    1,
    1,
    1,
    1,
    1,
    1,
    3,
    3,
    1,
    1,
    1,
    1,
    2,
    2,
    2,
    2,
    2,
    1,
    5,
    5,
    5,
    5,
    5,
    5,
    5,
    5,
    1,
    1,
    1,
    1,
    1,
    1,
    1,
    1,
    1,
    1,
    3,
    3,
    1,
    1,
    1,
    1,
    2,
    2,
    2,
    2,
    2,
    1,
    5,
    5,
    5,
    5,
    5,
    5,
    5,
    5,
    1,
    1,
    1,
    1,
    1,
    1,
    1,
    1,
    1,
    1,
    3,
    3,
    1,
    1,
    1,
    1,
    2,
    2,
    2,
    2,
    2,
    1,
    1,
    1,
    1,
    4,
    1,
    1,
    1,
    1,
    1,
    1,
    1,
    1,
    1,
    1,
    1,
    1,
    1,
    1,
    3,
    3,
    1,
    1,
    1,
    1,
    2,
    2,
    2,
    2,
    2,
    1,
    1,
    1,
    1,
    1,
    1,
    1,
    1,
    1,
    1,
    1,
    1,
    1,
    1,
    1,
    1,
    1,
    1,
    1,
    1,
    3,
    3,
    1,
    7,
    7,
    7,
    1,
    1,
    1,
    1,
    1,
    1,
    1,
    1,
    1,
    1,
    1,
    1,
    1,
    1,
    1,
    1,
    1,
    1,
    1,
    1,
    1,
    1,
    1,
    1,
    3,
    3,
    1,
    7,
    7,
    7,
    1,
    1,
    1,
    1,
    1,
    1,
    1,
    1,
    1,
    1,
    1,
    1,
    1,
    1,
    1,
    1,
    1,
    1,
    1,
    8,
    8,
    8,
    1,
    1,
    3,
    3,
    1,
    7,
    7,
    7,
    1,
    1,
    1,
    1,
    1,
    1,
    1,
    1,
    1,
    1,
    1,
    7,
    7,
    7,
    1,
    1,
    1,
    1,
    1,
    8,
    8,
    8,
    1,
    1,
    3,
    3,
    1,
    1,
    1,
    1,
    1,
    1,
    1,
    1,
    1,
    1,
    1,
    1,
    1,
    1,
    1,
    7,
    7,
    7,
    1,
    1,
    1,
    1,
    1,
    8,
    8,
    8,
    1,
    1,
    3,
    3,
    1,
    1,
    1,
    1,
    1,
    1,
    1,
    1,
    1,
    1,
    1,
    1,
    1,
    1,
    1,
    7,
    7,
    7,
    1,
    1,
    1,
    1,
    1,
    1,
    1,
    1,
    1,
    1,
    3,
    3,
    1,
    1,
    1,
    1,
    1,
    1,
    1,
    1,
    1,
    1,
    1,
    1,
    1,
    1,
    1,
    1,
    1,
    1,
    1,
    1,
    1,
    1,
    1,
    1,
    1,
    1,
    1,
    1,
    3,
    3,
    1,
    1,
    1,
    1,
    1,
    1,
    1,
    1,
    1,
    1,
    1,
    1,
    1,
    1,
    1,
    1,
    1,
    1,
    1,
    1,
    1,
    1,
    1,
    1,
    1,
    1,
    1,
    1,
    3,
    3,
    1,
    1,
    1,
    1,
    1,
    1,
    1,
    1,
    1,
    1,
    1,
    1,
    1,
    1,
    1,
    1,
    1,
    1,
    1,
    1,
    1
   ],
   "height": 20,
   "id": 1,
   "name": "terrain",
   "opacity": 1,
   "type": "tilelayer",
   "visible": true,
   "width": 30,
   "x": 0,
   "y": 0
  }
 ],
 "nextlayerid": 2,
 "nextobjectid": 1,
 "orientation": "orthogonal",
 "renderorder": "right-down",
 "tiledversion": "1.12.2",
 "tileheight": 32,
 "tilesets": [
  {
   "columns": 9,
   "image": "tilesets/002_mononoke/terrain.png",
   "imageheight": 32,
   "imagewidth": 288,
   "margin": 0,
   "name": "mononoke terrain",
   "spacing": 0,
   "tilecount": 9,
   "tileheight": 32,
   "tilewidth": 32,
   "tiles": [
    {
     "id": 0,
     "class": "field",
     "properties": [
      {
       "name": "kind",
       "type": "string",
       "value": "flat"
      }
     ]
    },
    {
     "id": 1,
     "class": "broken",
     "properties": [
      {
       "name": "kind",
       "type": "string",
       "value": "rough"
      }
     ]
    },
    {
     "id": 2,
     "class": "stream",
     "properties": [
      {
       "name": "kind",
       "type": "string",
       "value": "water"
      }
     ]
    },
    {
     "id": 3,
     "class": "ramp 1",
     "properties": [
      {
       "name": "height",
       "type": "int",
       "value": 1
      },
      {
       "name": "kind",
       "type": "string",
       "value": "slope"
      }
     ]
    },
    {
     "id": 4,
     "class": "ledge 1",
     "properties": [
      {
       "name": "height",
       "type": "int",
       "value": 1
      },
      {
       "name": "kind",
       "type": "string",
       "value": "high"
      }
     ]
    },
    {
     "id": 5,
     "class": "ledge 2",
     "properties": [
      {
       "name": "height",
       "type": "int",
       "value": 2
      },
      {
       "name": "kind",
       "type": "string",
       "value": "high"
      }
     ]
    },
    {
     "id": 6,
     "class": "tree",
     "properties": [
      {
       "name": "height",
       "type": "int",
       "value": 3
      },
      {
       "name": "kind",
       "type": "string",
       "value": "high"
      }
     ]
    },
    {
     "id": 7,
     "class": "boulder",
     "properties": [
      {
       "name": "height",
       "type": "int",
       "value": 5
      },
      {
       "name": "kind",
       "type": "string",
       "value": "high"
      }
     ]
    },
    {
     "id": 8,
     "class": "ramp 2",
     "properties": [
      {
       "name": "height",
       "type": "int",
       "value": 2
      },
      {
       "name": "kind",
       "type": "string",
       "value": "slope"
      }
     ]
    }
   ],
   "firstgid": 1
  }
 ],
 "tilewidth": 32,
 "type": "map",
 "version": "1.10",
 "width": 30
}
