<?xml version="1.0" encoding="UTF-8"?>
<map version="1.10" tiledversion="1.12.2" orientation="orthogonal" renderorder="right-down" width="30" height="20" tilewidth="32" tileheight="32" infinite="0" nextlayerid="5" nextobjectid="1">
 <tileset firstgid="1" source="tilesets/001_simple/terrain.tsx"/>
 <tileset firstgid="8" source="tilesets/001_simple/food_spawn.tsx"/>
 <tileset firstgid="11" source="tilesets/001_simple/nest.tsx"/>
 <tileset firstgid="19" source="tilesets/001_simple/region.tsx"/>
 <tileset firstgid="27" source="tilesets/001_simple/chill.tsx"/>
 <tileset firstgid="30" source="tilesets/001_simple/heat.tsx"/>
 <layer id="1" name="地形" width="30" height="20" locked="1">
  <data encoding="csv">
1,1,1,1,2,2,2,3,3,3,1,1,1,1,1,7,1,1,1,1,1,1,1,1,1,1,3,3,3,3,
1,1,1,1,1,1,2,2,3,3,3,1,1,1,1,7,1,1,1,1,1,1,1,1,1,1,1,3,3,3,
1,1,1,1,1,1,2,2,2,3,3,1,1,1,1,1,1,1,1,1,1,1,1,1,1,1,1,1,3,3,
1,1,1,1,1,1,1,2,2,3,3,3,1,1,1,7,1,1,1,1,1,1,1,1,1,1,1,1,1,3,
1,1,1,1,1,1,1,2,2,2,3,3,3,1,1,7,1,1,1,1,1,1,1,1,1,1,1,1,1,1,
1,1,1,1,1,1,1,1,2,2,2,3,3,1,1,7,1,1,1,1,1,1,1,1,1,1,1,1,1,1,
1,1,1,1,1,1,1,1,1,2,2,3,3,3,1,7,1,1,1,1,1,1,1,1,1,1,1,1,1,1,
1,1,1,1,1,1,1,1,1,2,2,2,3,3,1,7,1,1,1,1,1,1,1,1,1,1,1,1,1,1,
1,1,1,1,1,1,1,1,1,1,2,2,3,3,3,7,1,1,1,1,1,1,1,1,1,1,1,1,1,1,
1,1,1,1,1,1,1,1,1,1,1,2,2,3,3,7,1,1,1,1,1,1,1,1,1,1,1,1,1,1,
7,7,7,7,7,7,7,7,7,7,7,7,7,7,7,7,7,7,7,7,7,7,7,7,1,7,7,7,7,7,
5,5,5,5,5,5,4,1,1,1,1,1,1,2,3,7,3,3,1,1,1,1,1,1,1,1,1,1,1,1,
5,5,5,5,5,5,5,5,1,1,1,1,1,2,2,7,3,3,3,1,1,1,1,1,1,1,1,1,1,1,
6,6,6,5,5,5,5,5,5,1,1,1,1,1,2,7,1,3,3,3,1,1,1,1,1,1,1,1,1,1,
4,6,6,6,5,5,5,5,5,1,1,1,1,1,2,7,1,1,3,3,3,1,1,1,1,1,1,1,1,1,
7,7,7,6,6,5,5,5,5,5,1,1,1,1,2,7,1,1,1,3,3,3,1,1,1,1,1,1,1,1,
7,7,7,7,6,6,5,5,5,5,1,1,1,1,2,7,1,1,1,1,3,3,1,1,1,1,1,1,1,1,
7,7,7,7,6,6,5,5,5,5,1,1,1,1,2,7,1,1,1,1,1,3,3,1,1,1,1,1,1,1,
7,7,7,7,7,6,5,5,5,5,1,1,1,1,2,2,1,1,1,1,1,3,3,3,3,1,1,1,1,1,
7,7,7,7,7,6,4,5,5,5,1,1,2,2,2,7,1,1,1,1,1,1,1,3,3,3,3,1,1,1
</data>
 </layer>
 <layer id="2" name="発生" width="30" height="20" locked="1">
  <data encoding="csv">
0,0,0,0,10,0,10,0,0,0,0,0,0,11,0,0,0,0,0,0,0,0,0,0,0,8,0,9,14,9,
0,0,0,0,0,0,0,10,0,0,0,0,0,0,0,0,0,0,0,0,0,8,0,8,0,0,8,0,9,0,
0,0,0,0,0,0,10,0,10,0,0,0,0,0,0,0,0,0,0,0,8,0,8,0,8,0,0,8,0,9,
0,0,0,0,0,0,0,10,0,0,0,0,0,0,0,0,0,0,0,0,0,8,11,8,0,8,0,0,8,0,
0,0,0,0,0,0,0,0,10,0,0,0,0,0,0,0,0,0,0,0,8,0,8,11,8,0,0,8,0,8,
8,0,8,0,0,0,0,0,0,10,0,0,0,0,0,0,0,0,0,0,0,8,0,8,0,8,0,0,0,0,
0,8,0,8,0,0,0,0,0,0,10,0,0,0,0,0,0,0,0,0,0,0,8,0,8,0,0,0,0,0,
8,15,8,0,8,0,0,0,0,10,0,10,0,0,0,0,0,0,0,0,0,0,0,0,0,0,0,0,0,0,
15,8,15,8,0,8,0,0,0,0,10,0,0,0,0,0,0,0,0,0,0,0,0,8,0,8,0,0,0,0,
8,15,8,0,8,0,0,0,0,0,0,10,0,0,0,0,0,0,0,0,0,0,8,12,8,12,8,0,0,0,
0,0,0,0,0,0,0,0,0,0,0,0,0,0,0,0,0,0,0,0,0,0,0,0,0,0,0,0,0,0,
0,0,0,0,0,0,0,0,0,0,0,0,0,10,0,0,9,0,8,0,0,0,0,0,0,0,0,0,0,0,
0,0,0,0,0,0,0,0,0,0,0,0,0,0,10,0,0,9,0,8,0,0,0,0,0,0,0,0,0,0,
0,0,0,0,0,0,0,0,0,0,0,0,0,0,0,0,8,0,9,0,8,0,0,0,0,0,0,0,0,0,
0,0,0,0,0,0,0,0,0,0,0,0,0,0,10,0,0,8,0,9,0,8,0,0,0,0,0,0,0,0,
10,0,10,0,0,0,0,0,0,0,0,0,0,0,0,0,0,0,8,0,9,0,8,0,11,0,8,0,0,0,
0,10,0,0,0,0,0,0,0,0,0,0,0,0,10,0,0,0,0,8,0,9,0,8,0,8,0,8,0,0,
10,0,10,0,0,0,0,0,0,0,0,0,0,0,0,0,12,0,0,0,8,0,9,0,8,0,11,0,8,0,
0,10,0,0,0,0,0,0,10,0,0,0,0,0,10,0,0,0,0,8,0,9,0,9,0,8,0,8,0,0,
10,12,10,0,0,0,0,10,13,10,0,0,0,10,0,0,0,0,0,0,8,0,8,0,9,0,9,8,0,0
</data>
 </layer>
 <layer id="3" name="地域" width="30" height="20">
  <data encoding="csv">
0,0,0,0,0,0,0,0,0,0,0,0,0,0,0,0,0,0,0,0,0,0,0,0,0,0,0,0,0,0,
0,0,0,0,0,0,0,0,0,0,0,0,0,0,0,0,0,0,0,0,0,20,20,20,20,20,0,0,0,0,
0,0,0,0,0,0,0,0,0,0,0,0,0,0,0,0,0,0,0,0,20,20,20,20,20,20,20,0,0,0,
0,0,0,0,0,0,0,0,0,0,0,0,0,0,0,0,0,0,0,0,20,20,20,20,20,20,20,0,0,0,
0,0,0,0,0,0,0,0,0,0,0,0,0,0,0,0,0,0,0,0,20,20,20,20,20,20,21,21,21,21,
20,0,0,0,0,0,0,0,0,0,0,0,0,0,0,0,0,0,0,0,20,20,20,20,20,20,21,21,21,21,
20,20,0,0,0,0,0,0,0,0,0,0,0,0,0,0,0,0,0,0,0,20,20,20,20,20,21,21,21,21,
20,20,20,0,0,0,0,0,0,0,0,0,0,0,0,0,0,0,0,0,0,0,20,20,20,0,0,21,21,0,
20,20,20,20,0,0,0,0,0,0,0,0,0,0,0,0,0,0,0,0,0,0,0,0,0,0,0,0,0,0,
20,20,20,20,20,0,0,0,0,0,0,0,0,0,0,0,0,0,0,0,0,0,0,0,0,0,0,0,0,0,
0,0,0,0,0,0,0,0,0,0,0,0,0,0,0,0,0,0,0,0,0,0,0,0,0,0,0,0,0,0,
0,0,0,0,0,0,0,0,0,0,0,0,0,0,0,0,0,0,0,0,0,0,0,0,0,0,0,0,0,0,
0,0,0,0,0,0,0,0,0,0,0,0,0,0,0,0,0,0,0,0,0,0,0,0,0,0,0,0,0,0,
0,0,0,0,0,0,0,0,0,0,0,0,0,0,0,0,0,0,0,0,0,0,0,0,0,0,0,0,0,0,
0,0,0,0,0,0,0,0,0,0,0,0,0,0,0,0,0,0,0,0,0,0,0,0,0,0,0,0,0,0,
21,21,21,0,0,0,0,0,0,0,0,0,0,0,0,0,0,0,0,0,0,0,0,0,0,21,21,21,21,0,
21,21,21,0,0,0,0,0,0,0,0,0,0,0,0,0,0,0,0,0,0,0,0,0,0,21,21,21,21,0,
21,21,21,0,0,0,0,0,0,0,0,0,0,0,0,0,0,0,0,0,0,0,0,0,0,21,21,21,21,0,
0,0,0,0,0,0,0,0,0,0,0,0,0,0,0,0,0,0,0,0,0,0,0,0,0,0,21,21,21,0,
0,0,0,0,0,0,0,0,0,0,0,0,0,0,0,0,0,0,0,0,0,0,0,0,0,0,0,0,0,0
</data>
 </layer>
 <layer id="4" name="気温" width="30" height="20" locked="1">
  <data encoding="csv">
0,0,0,0,0,0,0,0,0,0,0,0,0,0,0,0,27,28,28,28,29,29,29,29,29,29,29,29,29,29,
0,0,0,0,0,0,0,0,0,0,0,0,0,0,0,0,27,28,28,28,29,29,29,29,29,29,29,29,29,29,
0,0,0,0,0,0,0,0,0,0,0,0,0,0,0,0,27,28,28,28,29,29,29,29,29,29,29,29,29,29,
0,0,0,0,0,0,0,0,0,0,0,0,0,0,0,0,27,28,28,28,29,29,29,29,29,29,29,29,29,29,
0,0,0,0,0,0,0,0,0,0,0,0,0,0,0,0,27,28,28,28,29,29,29,29,29,29,29,29,29,29,
0,0,0,0,0,0,0,0,0,0,0,0,0,0,0,0,27,28,28,28,29,29,29,29,29,29,29,29,29,29,
0,0,0,0,0,0,0,0,0,0,0,0,0,0,0,0,27,27,28,28,28,29,29,29,29,29,29,29,29,29,
0,0,0,0,0,0,0,0,0,0,0,0,0,0,0,0,27,27,27,28,28,28,29,29,29,29,29,29,29,29,
0,0,0,0,0,0,0,0,0,0,0,0,0,0,0,0,27,27,27,27,28,28,28,28,28,28,28,29,29,29,
0,0,0,0,0,0,0,0,0,0,0,0,0,0,0,0,27,27,27,27,27,28,28,28,28,28,28,28,29,29,
0,0,0,0,0,0,0,0,0,0,0,0,0,0,0,0,0,0,0,0,0,0,0,0,0,0,0,0,0,0,
30,30,30,30,30,30,0,32,32,32,32,32,32,32,32,0,0,0,27,27,27,27,27,27,27,27,27,27,27,27,
30,30,30,30,30,30,30,30,32,32,32,32,32,32,32,0,0,0,27,27,27,27,27,27,27,27,27,27,27,27,
0,0,0,30,30,30,30,30,30,32,32,32,32,32,32,0,0,0,27,27,27,27,27,27,27,27,27,27,27,27,
27,27,27,27,30,30,30,30,30,32,32,32,32,32,32,0,0,0,27,27,27,27,27,27,27,27,27,27,27,27,
27,27,27,27,0,30,30,30,30,30,32,32,32,32,32,0,0,0,0,0,0,0,0,0,0,0,0,0,0,0,
27,27,27,27,27,0,30,30,30,30,32,32,32,32,32,0,0,0,0,0,0,0,0,0,0,0,0,0,0,0,
27,27,27,27,27,0,30,30,30,30,32,32,32,32,32,0,0,0,0,0,0,0,0,0,0,0,0,0,0,0,
27,27,27,27,27,0,30,30,30,30,32,32,32,32,32,0,0,0,0,0,0,0,0,0,0,0,0,0,0,0,
27,27,27,27,27,0,30,30,30,30,32,32,32,32,32,0,0,0,0,0,0,0,0,0,0,0,0,0,0,0
</data>
 </layer>
</map>
